app/[lang]/(home)/(new-home)/assets/ide-icons/kiro.svg

<svg
  width="64"
  height="64"
  viewBox="0 0 64 64"
  fill="none"
  xmlns="http://www.w3.org/2000/svg"
>
  <g opacity="0.7">
    <rect width="64" height="64" rx="10.3166" fill="#9146FF" />
    <path
      d="M18.7755 46.009C13.4896 57.7234 24.7451 60.6606 33.0466 53.8051C35.4861 61.493 44.6426 55.7584 47.9262 49.803C55.1638 36.6766 52.2409 23.2858 51.4908 20.5238C46.3458 1.6873 20.631 1.66852 16.2048 20.6198C15.1714 23.9362 15.1532 27.7081 14.5678 31.6244C14.2727 33.5992 14.0646 34.8596 13.3004 36.9368C12.8611 38.1311 12.2565 39.1916 11.3068 40.9789C9.83172 43.755 10.454 49.1128 18.0569 46.3344L18.7755 46.009Z"
      fill="white"
    />
    <path
      d="M34.051 28.6767C31.9404 28.6767 31.6251 26.1544 31.6251 24.6506C31.6251 23.2935 31.8683 22.2151 32.329 21.5315C32.7341 20.93 33.3138 20.6249 34.051 20.6249C34.7885 20.6249 35.4211 20.9348 35.8674 21.5463C36.3757 22.2431 36.6443 23.3163 36.6443 24.6506C36.6443 27.1719 35.6745 28.6767 34.051 28.6767Z"
      fill="black"
    />
    <path
      d="M42.7334 28.6767C40.6224 28.6767 40.3071 26.1544 40.3071 24.6506C40.3071 23.2935 40.5505 22.2151 41.0111 21.5315C41.4162 20.93 41.9959 20.6249 42.7334 20.6249C43.4706 20.6249 44.1032 20.9348 44.5495 21.5463C45.0578 22.2431 45.3266 23.3163 45.3266 24.6506C45.3266 27.1719 44.357 28.6767 42.7334 28.6767Z"
      fill="black"
    />
  </g>
</svg>

<svg xmlns="http://www.w3.org/2000/svg" fill="none" viewBox="0 0 64 64">
  <g opacity=".7">
    <rect width="64" height="64" fill="#9146FF" rx="10.32" />
    <path
      fill="#fff"
      d="M18.78 46c-5.29 11.72 5.97 14.66 14.27 7.8 2.44 7.7 11.6 1.96 14.88-4 7.23-13.12 4.31-26.51 3.56-29.28-5.14-18.83-30.86-18.85-35.29.1-1.03 3.32-1.05 7.09-1.63 11-.3 1.98-.5 3.24-1.27 5.32-.44 1.2-1.04 2.25-2 4.04-1.47 2.78-.85 8.13 6.76 5.35l.72-.32Z"
    />
    <path
      fill="#000"
      d="M34.05 28.68c-2.11 0-2.42-2.53-2.42-4.03 0-1.36.24-2.43.7-3.12.4-.6.98-.9 1.72-.9s1.37.3 1.82.92c.5.7.77 1.77.77 3.1 0 2.52-.97 4.03-2.59 4.03ZM42.73 28.68c-2.1 0-2.42-2.53-2.42-4.03 0-1.36.24-2.43.7-3.12.4-.6.99-.9 1.72-.9.74 0 1.37.3 1.82.92.5.7.78 1.77.78 3.1 0 2.52-.97 4.03-2.6 4.03Z"
    />
  </g>
</svg>
